dist/img/svg/instagram.svg

<svg width="16" height="16" viewBox="0 0 16 16" fill="none" xmlns="http://www.w3.org/2000/svg">
<path d="M11.5845 0H4.41533C1.98072 0 0 1.98081 0 4.41542V11.5846C0 14.0193 1.98072 16 4.41533 16H11.5845C14.0193 16 16 14.0192 16 11.5846V4.41542C16.0001 1.98081 14.0193 0 11.5845 0ZM14.5805 11.5846C14.5805 13.2365 13.2365 14.5804 11.5846 14.5804H4.41533C2.76348 14.5805 1.4196 13.2365 1.4196 11.5846V4.41542C1.4196 2.76358 2.76348 1.4196 4.41533 1.4196H11.5845C13.2364 1.4196 14.5804 2.76358 14.5804 4.41542L14.5805 11.5846Z" fill="white"/>
<path d="M8.00004 3.8774C5.72669 3.8774 3.87724 5.72685 3.87724 8.00019C3.87724 10.2734 5.72669 12.1228 8.00004 12.1228C10.2734 12.1228 12.1228 10.2734 12.1228 8.00019C12.1228 5.72685 10.2734 3.8774 8.00004 3.8774ZM8.00004 10.7031C6.50955 10.7031 5.29684 9.49058 5.29684 8.0001C5.29684 6.50952 6.50946 5.2969 8.00004 5.2969C9.49061 5.2969 10.7032 6.50952 10.7032 8.0001C10.7032 9.49058 9.49052 10.7031 8.00004 10.7031Z" fill="white"/>
<path d="M12.2957 2.67367C12.0222 2.67367 11.7535 2.7844 11.5604 2.97841C11.3663 3.17148 11.2547 3.44026 11.2547 3.71471C11.2547 3.98832 11.3664 4.257 11.5604 4.45101C11.7534 4.64407 12.0222 4.75575 12.2957 4.75575C12.5702 4.75575 12.838 4.64407 13.032 4.45101C13.226 4.257 13.3368 3.98822 13.3368 3.71471C13.3368 3.44026 13.226 3.17148 13.032 2.97841C12.839 2.7844 12.5702 2.67367 12.2957 2.67367Z" fill="white"/>
</svg>

<svg width="16" height="16" viewBox="0 0 16 16" fill="none" xmlns="http://www.w3.org/2000/svg"><path d="M11.585 0h-7.17A4.42 4.42 0 000 4.415v7.17A4.42 4.42 0 004.415 16h7.17A4.42 4.42 0 0016 11.585v-7.17A4.42 4.42 0 0011.585 0zm2.995 11.585a3 3 0 01-2.995 2.995h-7.17a3 3 0 01-2.995-2.995v-7.17A3 3 0 014.415 1.42h7.17a3 3 0 012.995 2.995v7.17z" fill="#fff"/><path d="M8 3.877A4.127 4.127 0 003.877 8 4.127 4.127 0 008 12.123 4.127 4.127 0 0012.123 8 4.127 4.127 0 008 3.877zm0 6.826A2.706 2.706 0 015.297 8 2.706 2.706 0 018 5.297 2.706 2.706 0 0110.703 8 2.706 2.706 0 018 10.703zm4.296-8.029a1.045 1.045 0 00-1.041 1.04c0 .274.111.543.305.737.193.193.462.305.736.305.274 0 .542-.112.736-.305a1.05 1.05 0 00.305-.736c0-.275-.111-.544-.305-.737a1.045 1.045 0 00-.736-.304z" fill="#fff"/></svg>
